!!!OTL: Li tian ge
!!!ARE: Asia, China,ÿTaiwan
!! IV, 623
!!!SCT: C1697
!!!YEM: Copyright 1995, estate of Helmut Schaffrath.
**kern
*ICvox
*Ivox
*M2/4
*k[]
*C:
{8e
8e
16d
16e
16d
16c
=1
8.A
16c
4d}
=2
{8e
8e
16d
16e
16d
16c
=3
16A
8A
16c
4d}
=4
{8A
8A
8d
16A
16c
=5
8d
16c
16e
8.d
16c
=6
4d}
{16A
8c
16d
=7
16c
16A
16G
16E
16A
16c
16A
16G
=8
8E
8E}
{8A
16E
16G
=9
8A
16G
16B
8.A
16G
=10
4A
4r}
==
!!!AGN: Xiaodiao
!!!AMT: simple duple
!!!AIN: vox
!!!EED: Helmut Schaffrath
!!!EEV: 1.0
*-
